assets/Princess/Medium/Flat/princess_flat_medium.svg

<svg width="32" height="32" viewBox="0 0 32 32" fill="none" xmlns="http://www.w3.org/2000/svg">
<path d="M23.1633 15.9251C23.3691 15.4944 23.4906 15.0075 23.4906 14.5019C23.4906 13.8277 23.2849 13.2004 22.9389 12.6854C22.5929 12.161 22.4059 11.5431 22.4152 10.9157V10.9064C22.4152 9.08989 20.947 7.61049 19.1234 7.61049C18.9458 7.61049 18.7774 7.52622 18.6746 7.3764C18.0761 6.54307 17.1035 6 16 6C14.8965 6 13.9239 6.54307 13.3254 7.3764C13.2132 7.51685 13.0449 7.60112 12.8672 7.60112C11.053 7.60112 9.57544 9.07116 9.57544 10.897V10.9064C9.57544 11.5337 9.39776 12.1517 9.05175 12.676C8.70574 13.2004 8.5 13.8277 8.5 14.4925C8.5 15.0075 8.61222 15.485 8.82731 15.9157C8.89277 16.0562 8.89277 16.2247 8.82731 16.3745C8.62157 16.7959 8.5 17.2734 8.5 17.779C8.5 19.5581 9.94015 21 11.717 21H20.283C22.0599 21 23.5 19.5581 23.5 17.779C23.5 17.2734 23.3878 16.7959 23.1727 16.3745C23.0979 16.2434 23.0979 16.0749 23.1633 15.9251Z" fill="#593B39"/>
<path d="M24 30.0002L25 26.2502L24 22.5002C23.5323 22.1086 23.0306 21.793 22.5 21.5002C22.5 21.5002 18.3688 21.5 16 21.5C13.5583 21.5 9.35475 21.5002 9.35475 21.5002C8.8776 21.7706 8.42469 22.1425 8 22.5002L7 26.2502L8 30.0002H24Z" fill="#633589"/>
<path d="M8 30H4.25C4.39189 29.1083 4.60473 28.2266 4.88851 27.3547L4.91892 27.2655C5.52703 25.4029 6.60135 23.7781 8 22.5V30Z" fill="#8B62BF"/>
<path d="M27.1233 27.3257C27.4063 28.2039 27.6085 29.0921 27.75 30H24V22.5C25.4252 23.7829 26.5168 25.4309 27.1233 27.3257Z" fill="#8B62BF"/>
<path d="M24 22.5V28.62C25.96 29.93 28.58 28.53 28.58 26.18C28.58 24.15 26.93 22.5 24.9 22.5H24Z" fill="#774AA6"/>
<path d="M8.00004 22.5V28.62C6.04004 29.92 3.42004 28.52 3.42004 26.17C3.42004 24.14 5.07004 22.49 7.10004 22.5H8.00004Z" fill="#774AA6"/>
<path d="M22.5 21.4999L18 27.4999C17.03 28.6599 14.96 28.6599 14 27.4999L9.37561 21.4882C9.69074 21.3107 10.0164 21.1513 10.3514 21.0088C10.3514 21.0088 13.968 21 16 21C18.0056 21 21.5 21.0054 21.5 21.0054C21.841 21.1522 22.1743 21.3167 22.5 21.4999Z" fill="#A17FD5"/>
<path d="M16 20C18.5 20 20.0155 20.4027 21.5 21L17.2218 26.8715C16.961 27.1739 16.5125 27.3699 15.9963 27.3699C15.479 27.3699 15.0349 27.1732 14.7801 26.8738L10.3416 20.998C11.8373 20.3977 13.5 20 16 20Z" fill="#B87A66"/>
<path d="M12.5 14.75C12.5 15.5784 11.8284 16.25 11 16.25C10.1716 16.25 9.5 15.5784 9.5 14.75C9.5 13.9216 10.1716 13.25 11 13.25C11.8284 13.25 12.5 13.9216 12.5 14.75Z" fill="#BB806E"/>
<path d="M22.5 14.75C22.5 15.5784 21.8284 16.25 21 16.25C20.1716 16.25 19.5 15.5784 19.5 14.75C19.5 13.9216 20.1716 13.25 21 13.25C21.8284 13.25 22.5 13.9216 22.5 14.75Z" fill="#BB806E"/>
<path d="M13.5 20.085C13.5 20.4113 13.3437 20.7011 13.1019 20.8836C13.5918 20.9482 13.97 21.3674 13.97 21.875C13.97 22.0147 13.9413 22.1477 13.8896 22.2685C14.0122 22.2148 14.1476 22.1851 14.29 22.1851C14.7967 22.1851 15.2153 22.5618 15.2811 23.0504C15.4641 22.8159 15.7494 22.665 16.0699 22.665C16.3956 22.665 16.6849 22.8207 16.8675 23.0617C16.9283 22.5676 17.3495 22.1851 17.86 22.1851C17.9977 22.1851 18.1288 22.2129 18.2482 22.2632C18.1979 22.1438 18.17 22.0127 18.17 21.875C18.17 21.3645 18.5526 20.9433 19.0467 20.8825C18.8057 20.6999 18.65 20.4106 18.65 20.085C18.65 19.5327 19.0977 19.085 19.65 19.085C20.2023 19.085 20.65 19.5327 20.65 20.085C20.65 20.5955 20.2675 21.0167 19.7734 21.0774C20.0144 21.26 20.17 21.5493 20.17 21.875C20.17 22.4273 19.7223 22.875 19.17 22.875C19.0324 22.875 18.9012 22.8472 18.7818 22.7969C18.8322 22.9162 18.86 23.0474 18.86 23.1851C18.86 23.7373 18.4123 24.1851 17.86 24.1851C17.5343 24.1851 17.245 24.0294 17.0624 23.7884C17.0016 24.2825 16.5805 24.665 16.0699 24.665C15.5633 24.665 15.1447 24.2883 15.0789 23.7997C14.8959 24.0342 14.6106 24.1851 14.29 24.1851C13.7378 24.1851 13.29 23.7373 13.29 23.1851C13.29 23.0454 13.3187 22.9124 13.3704 22.7916C13.2478 22.8452 13.1124 22.875 12.97 22.875C12.4177 22.875 11.97 22.4273 11.97 21.875C11.97 21.5487 12.1263 21.2589 12.3681 21.0763C11.8782 21.0118 11.5 20.5925 11.5 20.085C11.5 19.5327 11.9477 19.085 12.5 19.085C13.0523 19.085 13.5 19.5327 13.5 20.085Z" fill="#F3EEF8"/>
<path d="M11 12.5019C11.0431 11.5989 11.5613 11.2455 11.788 11.1348C11.8066 11.1254 11.8228 11.1183 11.8391 11.1112C11.8554 11.1041 11.8717 11.097 11.8902 11.0875C12.4109 10.851 12.8387 10.4159 13.0618 9.85776L13.1362 9.66856C13.2106 9.46991 13.4709 9.44153 13.5918 9.61181C14.2985 10.6618 15.47 11.2862 16.716 11.2862H19.868C20.0447 11.2862 20.9652 11.3808 20.9838 12.724C20.9891 12.7251 20.9945 12.7261 21 12.7273L20.8722 15.7702C20.7513 18.5986 18.6034 20.5 16 20.5C13.3872 20.5 11.2486 18.5986 11.1278 15.7702L11 12.5019Z" fill="#C68D7B"/>
<path d="M13.46 13C14.06 13 14.55 13.41 14.86 13.88C14.531 13.9836 14.2122 14.0751 13.8944 14.1663C13.5069 14.2774 13.121 14.3882 12.72 14.52L12.21 14.06C12 13.87 12.02 13.54 12.25 13.37C12.58 13.13 13.04 13 13.46 13Z" fill="black"/>
<path d="M18.6646 13C18.0646 13 17.5746 13.41 17.2646 13.88C17.5936 13.9836 17.9124 14.0751 18.2303 14.1663C18.6177 14.2774 19.0036 14.3882 19.4046 14.52L19.9146 14.06C20.1246 13.87 20.1046 13.54 19.8746 13.37C19.5446 13.13 19.0846 13 18.6646 13Z" fill="black"/>
<path d="M12.21 14.2399C12.37 13.5899 12.95 13.1099 13.65 13.1099C14.37 13.1099 14.97 13.6199 15.12 14.3099C15.15 14.4599 15.03 14.5999 14.88 14.5999H12.5C12.31 14.5999 12.16 14.4199 12.21 14.2399Z" fill="white"/>
<path d="M19.9146 14.2399C19.7546 13.5899 19.1746 13.1099 18.4746 13.1099C17.7546 13.1099 17.1446 13.6199 17.0046 14.3099C16.9746 14.4599 17.0946 14.5999 17.2446 14.5999H19.6246C19.8146 14.5999 19.9646 14.4199 19.9146 14.2399Z" fill="white"/>
<path d="M12.9199 14.3499C12.9199 13.8299 13.3399 13.3999 13.8699 13.3999C14.3899 13.3999 14.8199 13.8299 14.8199 14.3499C14.8199 14.4399 14.8099 14.5199 14.7899 14.5999H12.9499C12.9299 14.5199 12.9199 14.4399 12.9199 14.3499Z" fill="#7D4533"/>
<path d="M19.2046 14.3499C19.2046 13.8299 18.7846 13.3999 18.2546 13.3999C17.7346 13.3999 17.3046 13.8299 17.3046 14.3499C17.3046 14.4399 17.3146 14.5199 17.3346 14.5999H19.1746C19.1946 14.5199 19.2046 14.4399 19.2046 14.3499Z" fill="#7D4533"/>
<path d="M13.87 13.7998C14.17 13.7998 14.41 14.0398 14.41 14.3398C14.41 14.4298 14.39 14.5198 14.35 14.5898H13.39C13.35 14.5198 13.33 14.4298 13.33 14.3398C13.33 14.0398 13.57 13.7998 13.87 13.7998Z" fill="black"/>
<path d="M18.2546 13.7998C17.9546 13.7998 17.7146 14.0398 17.7146 14.3398C17.7146 14.4298 17.7346 14.5198 17.7746 14.5898H18.7346C18.7746 14.5198 18.7946 14.4298 18.7946 14.3398C18.7946 14.0398 18.5546 13.7998 18.2546 13.7998Z" fill="black"/>
<path d="M13.71 13.9698C13.71 14.0637 13.6339 14.1398 13.54 14.1398C13.4461 14.1398 13.37 14.0637 13.37 13.9698C13.37 13.8759 13.4461 13.7998 13.54 13.7998C13.6339 13.7998 13.71 13.8759 13.71 13.9698Z" fill="white"/>
<path d="M18.48 13.9698C18.48 14.0637 18.4039 14.1398 18.31 14.1398C18.2161 14.1398 18.14 14.0637 18.14 13.9698C18.14 13.8759 18.2161 13.7998 18.31 13.7998C18.4039 13.7998 18.48 13.8759 18.48 13.9698Z" fill="white"/>
<path d="M16 17.6495C15.4419 17.6495 14.9337 17.513 14.4952 17.2716C14.3457 17.1876 14.1863 17.3661 14.276 17.5131C14.6447 18.1115 15.2725 18.5 16 18.5C16.7275 18.5 17.3553 18.1115 17.724 17.5131C17.8137 17.3661 17.6543 17.1876 17.5048 17.2716C17.0763 17.5026 16.5581 17.6495 16 17.6495Z" fill="#990838"/>
<path d="M15.6424 14.2845L15.1477 16.0313C15.047 16.3907 15.2943 16.75 15.6333 16.75H16.3662C16.7143 16.75 16.9525 16.3907 16.8517 16.0313L16.357 14.2845C16.2562 13.9052 15.7524 13.9052 15.6424 14.2845Z" fill="#AB6A55"/>
<path d="M10.5 7.5C10.5 7.77614 10.2761 8 10 8C9.72386 8 9.5 7.77614 9.5 7.5C9.5 7.22386 9.72386 7 10 7C10.2761 7 10.5 7.22386 10.5 7.5Z" fill="#37C9CD"/>
<path d="M22.5 7.5C22.5 7.77614 22.2761 8 22 8C21.7239 8 21.5 7.77614 21.5 7.5C21.5 7.22386 21.7239 7 22 7C22.2761 7 22.5 7.22386 22.5 7.5Z" fill="#37C9CD"/>
<path d="M19.4242 5.10447L17.4817 7.27447L21 8.02447L20.108 5.24447C20.3954 5.16447 20.6135 4.91447 20.6432 4.59447C20.6829 4.18447 20.3756 3.81447 19.9693 3.77447C19.5629 3.73447 19.1962 4.04447 19.1566 4.45447C19.1368 4.71447 19.2458 4.95447 19.4242 5.10447Z" fill="#F9C23C"/>
<path d="M12.5857 5.10457L14.5183 7.27457L11 8.02457L11.892 5.24457C11.6046 5.16457 11.3865 4.91457 11.3568 4.59457C11.3271 4.17457 11.6244 3.81457 12.0307 3.77457C12.447 3.73457 12.8137 4.03457 12.8533 4.45457C12.8731 4.70457 12.7641 4.94457 12.5857 5.10457Z" fill="#F9C23C"/>
<path d="M22.6908 4.58678C22.3161 4.60679 22.0105 4.90704 21.9809 5.27735C21.971 5.40745 21.9907 5.52755 22.0302 5.64765L19.4963 6.4383C19.3681 6.47834 19.2399 6.4383 19.1413 6.34823L16.3116 3.47586C16.5976 3.33575 16.775 3.0355 16.7356 2.68521C16.6962 2.32492 16.4201 2.04469 16.075 2.00465C15.6215 1.95461 15.2271 2.31491 15.2271 2.76528C15.2271 3.07553 15.4046 3.33575 15.6609 3.45585L12.8411 6.33822C12.7425 6.4383 12.6143 6.46833 12.4861 6.42829L9.95221 5.64765C9.99165 5.53756 10.0212 5.40745 10.0015 5.27735C9.97193 4.90704 9.65642 4.60679 9.29162 4.58678C8.83808 4.56676 8.46342 4.94708 8.50285 5.41746C8.53243 5.76775 8.79864 6.05799 9.13387 6.11804C9.2226 6.13806 9.3212 6.12805 9.40008 6.11804L10.3072 8.26981C10.3663 8.40993 10.5043 8.5 10.6522 8.5H15.9961H21.34C21.4879 8.5 21.6259 8.40993 21.6851 8.26981L22.5922 6.11804C22.6809 6.13806 22.7696 6.13806 22.8682 6.11804C23.2133 6.05799 23.4697 5.75774 23.4993 5.40745C23.519 4.93707 23.1443 4.56676 22.6908 4.58678Z" fill="#FFB02E"/>
<path d="M16 8C16.6904 8 17.25 7.44036 17.25 6.75C17.25 6.05964 16.6904 5.5 16 5.5C15.3096 5.5 14.75 6.05964 14.75 6.75C14.75 7.44036 15.3096 8 16 8Z" fill="#F92F60"/>
<path d="M13 7.5C13 7.77614 12.7761 8 12.5 8C12.2239 8 12 7.77614 12 7.5C12 7.22386 12.2239 7 12.5 7C12.7761 7 13 7.22386 13 7.5Z" fill="#00D1ED"/>
<path d="M20 7.5C20 7.77614 19.7761 8 19.5 8C19.2239 8 19 7.77614 19 7.5C19 7.22386 19.2239 7 19.5 7C19.7761 7 20 7.22386 20 7.5Z" fill="#00D1ED"/>
<path d="M19.3996 12.648C19.4375 12.6765 19.4848 12.6859 19.5322 12.6859C19.6269 12.6859 19.7121 12.6386 19.7594 12.5439C19.8352 12.4113 19.7973 12.2503 19.6647 12.1746C19.6363 12.1556 18.7651 11.6727 17.7708 11.8526C17.6193 11.881 17.5246 12.023 17.553 12.1651C17.5814 12.3166 17.7235 12.4113 17.8655 12.3829C18.6018 12.2529 19.2668 12.5826 19.3821 12.6398C19.3928 12.6451 19.3996 12.648 19.3996 12.648Z" fill="#593B39"/>
<path d="M12.2309 12.5532C12.2878 12.6384 12.373 12.6857 12.4677 12.6857C12.515 12.6857 12.5624 12.6763 12.6003 12.6573C12.6097 12.6479 13.3294 12.2501 14.1344 12.3922C14.2859 12.4206 14.4184 12.3164 14.4374 12.1744C14.4658 12.0323 14.3616 11.8903 14.2196 11.8619C13.2663 11.6803 12.4349 12.1254 12.3345 12.1792C12.3302 12.1815 12.3256 12.1839 12.3256 12.1839C12.2025 12.2596 12.1552 12.4206 12.2309 12.5532Z" fill="#593B39"/>
</svg>

<svg xmlns="http://www.w3.org/2000/svg" width="32" height="32" fill="none"><path fill="#593B39" d="M23.163 15.925a3.253 3.253 0 0 0-.224-3.24 3.139 3.139 0 0 1-.524-1.77v-.009a3.293 3.293 0 0 0-3.292-3.296.541.541 0 0 1-.448-.234 3.284 3.284 0 0 0-5.35 0 .59.59 0 0 1-.458.225 3.293 3.293 0 0 0-3.292 3.296v.01c0 .627-.177 1.245-.523 1.769a3.3 3.3 0 0 0-.552 1.816c0 .515.112.993.327 1.424a.56.56 0 0 1 0 .459 3.199 3.199 0 0 0-.327 1.404C8.5 19.559 9.94 21 11.717 21h8.566a3.219 3.219 0 0 0 3.217-3.221c0-.506-.112-.983-.327-1.404a.505.505 0 0 1-.01-.45Z"/><path fill="#633589" d="m24 30 1-3.75-1-3.75a9.274 9.274 0 0 0-1.5-1H9.355c-.477.27-.93.642-1.355 1l-1 3.75L8 30h16Z"/><path fill="#8B62BF" d="M8 30H4.25a17.34 17.34 0 0 1 .639-2.645l.03-.09A11.123 11.123 0 0 1 8 22.5V30ZM27.123 27.326c.283.878.485 1.766.627 2.674H24v-7.5a10.99 10.99 0 0 1 3.123 4.826Z"/><path fill="#774AA6" d="M24 22.5v6.12c1.96 1.31 4.58-.09 4.58-2.44 0-2.03-1.65-3.68-3.68-3.68H24ZM8 22.5v6.12c-1.96 1.3-4.58-.1-4.58-2.45 0-2.03 1.65-3.68 3.68-3.67H8Z"/><path fill="#A17FD5" d="m22.5 21.5-4.5 6c-.97 1.16-3.04 1.16-4 0l-4.624-6.012c.315-.177.64-.337.975-.48 0 0 3.617-.008 5.649-.008 2.006 0 5.5.005 5.5.005.341.147.674.312 1 .495Z"/><path fill="#B87A66" d="M16 20c2.5 0 4.015.403 5.5 1l-4.278 5.872c-.261.302-.71.498-1.226.498-.517 0-.961-.197-1.216-.496l-4.438-5.876C11.837 20.398 13.5 20 16 20Z"/><path fill="#BB806E" d="M12.5 14.75a1.5 1.5 0 1 1-3 0 1.5 1.5 0 0 1 3 0ZM22.5 14.75a1.5 1.5 0 1 1-3 0 1.5 1.5 0 0 1 3 0Z"/><path fill="#F3EEF8" d="M13.5 20.085a.998.998 0 0 1-.398.799 1 1 0 0 1 .788 1.384 1 1 0 0 1 1.392.782.998.998 0 0 1 1.586.012 1 1 0 0 1 1.38-.799 1 1 0 0 1 .799-1.38.998.998 0 0 1 .603-1.798 1 1 0 0 1 .123 1.992 1 1 0 0 1-.992 1.72 1 1 0 0 1-1.72.991 1 1 0 0 1-1.982.012.998.998 0 0 1-1.789-.615c0-.14.029-.273.08-.393a1 1 0 0 1-1.002-1.715 1 1 0 1 1 1.132-.992Z"/><path fill="#C68D7B" d="M11 12.502c.043-.903.561-1.257.788-1.367a.938.938 0 0 1 .051-.024 2.28 2.28 0 0 0 1.223-1.253l.074-.19a.259.259 0 0 1 .456-.056 3.77 3.77 0 0 0 3.124 1.674h3.152c.177 0 1.097.095 1.116 1.438l.016.003-.128 3.043C20.752 18.6 18.603 20.5 16 20.5c-2.613 0-4.751-1.901-4.872-4.73L11 12.502Z"/><path fill="#000" d="M13.46 13c.6 0 1.09.41 1.4.88a38.84 38.84 0 0 1-.966.286c-.387.111-.773.222-1.174.354l-.51-.46a.444.444 0 0 1 .04-.69c.33-.24.79-.37 1.21-.37ZM18.665 13c-.6 0-1.09.41-1.4.88.329.104.647.195.965.286.388.111.774.222 1.175.354l.51-.46c.21-.19.19-.52-.04-.69-.33-.24-.79-.37-1.21-.37Z"/><path fill="#fff" d="M12.21 14.24c.16-.65.74-1.13 1.44-1.13.72 0 1.32.51 1.47 1.2.03.15-.09.29-.24.29H12.5c-.19 0-.34-.18-.29-.36ZM19.915 14.24a1.48 1.48 0 0 0-1.44-1.13 1.5 1.5 0 0 0-1.47 1.2c-.03.15.09.29.24.29h2.38c.19 0 .34-.18.29-.36Z"/><path fill="#7D4533" d="M12.92 14.35a.95.95 0 1 1 1.9 0c0 .09-.01.17-.03.25h-1.84c-.02-.08-.03-.16-.03-.25ZM19.205 14.35a.95.95 0 1 0-1.9 0c0 .09.01.17.03.25h1.84c.02-.08.03-.16.03-.25Z"/><path fill="#000" d="M13.87 13.8c.3 0 .54.24.54.54 0 .09-.02.18-.06.25h-.96a.514.514 0 0 1-.06-.25c0-.3.24-.54.54-.54ZM18.255 13.8c-.3 0-.54.24-.54.54 0 .09.02.18.06.25h.96c.04-.07.06-.16.06-.25 0-.3-.24-.54-.54-.54Z"/><path fill="#fff" d="M13.71 13.97a.17.17 0 1 1-.34 0 .17.17 0 0 1 .34 0ZM18.48 13.97a.17.17 0 1 1-.34 0 .17.17 0 0 1 .34 0Z"/><path fill="#990838" d="M16 17.65a3.095 3.095 0 0 1-1.505-.378c-.15-.084-.309.094-.219.241.369.598.997.987 1.724.987s1.355-.389 1.724-.987c.09-.147-.07-.325-.22-.241A3.184 3.184 0 0 1 16 17.65Z"/><path fill="#AB6A55" d="m15.642 14.284-.494 1.747c-.101.36.146.719.485.719h.733c.348 0 .587-.36.486-.719l-.495-1.746c-.1-.38-.605-.38-.715 0Z"/><path fill="#37C9CD" d="M10.5 7.5a.5.5 0 1 1-1 0 .5.5 0 0 1 1 0ZM22.5 7.5a.5.5 0 1 1-1 0 .5.5 0 0 1 1 0Z"/><path fill="#F9C23C" d="m19.424 5.104-1.942 2.17 3.518.75-.892-2.78a.738.738 0 0 0 .535-.65.757.757 0 0 0-.674-.82.754.754 0 0 0-.545 1.33ZM12.586 5.105l1.932 2.17-3.518.75.892-2.78a.738.738 0 0 1-.535-.65.758.758 0 0 1 .674-.82.75.75 0 0 1 .822.68c.02.25-.089.49-.267.65Z"/><path fill="#FFB02E" d="M22.69 4.587a.757.757 0 0 0-.71.69c-.009.13.01.25.05.37l-2.534.791a.36.36 0 0 1-.355-.09l-2.83-2.872a.767.767 0 0 0 .425-.79.76.76 0 0 0-.661-.681.767.767 0 0 0-.414 1.45l-2.82 2.883a.34.34 0 0 1-.355.09l-2.534-.78a.77.77 0 0 0 .05-.37.765.765 0 0 0-.71-.691.76.76 0 0 0-.79.83c.03.35.297.641.632.701.089.02.187.01.266 0l.907 2.152c.06.14.197.23.345.23H21.34c.148 0 .286-.09.345-.23l.907-2.152c.089.02.178.02.276 0a.783.783 0 0 0 .631-.71.777.777 0 0 0-.808-.821Z"/><path fill="#F92F60" d="M16 8a1.25 1.25 0 1 0 0-2.5A1.25 1.25 0 0 0 16 8Z"/><path fill="#00D1ED" d="M13 7.5a.5.5 0 1 1-1 0 .5.5 0 0 1 1 0ZM20 7.5a.5.5 0 1 1-1 0 .5.5 0 0 1 1 0Z"/><path fill="#593B39" d="M19.4 12.648a.217.217 0 0 0 .132.038c.095 0 .18-.047.227-.142a.265.265 0 0 0-.094-.37c-.029-.018-.9-.501-1.894-.321a.267.267 0 0 0-.218.312c.028.152.17.246.313.218.736-.13 1.4.2 1.516.257l.018.008ZM12.23 12.553a.282.282 0 0 0 .238.133c.047 0 .094-.01.132-.029.01-.01.73-.407 1.534-.265a.256.256 0 0 0 .303-.218c.029-.142-.075-.284-.217-.312-.954-.182-1.785.263-1.886.317l-.008.005a.273.273 0 0 0-.095.37Z"/></svg>
